images/svg/facebook.svg

<svg width="29" height="28" viewBox="0 0 29 28" fill="none" xmlns="http://www.w3.org/2000/svg">
<ellipse cx="14.8079" cy="14" rx="13.8215" ry="14" fill="#B1464A"/>
<path d="M13.5298 20.3038V14.7503H11.6848V12.5859H13.5298V10.9898C13.5298 9.13752 14.6467 8.12891 16.278 8.12891C17.0594 8.12891 17.731 8.18784 17.9267 8.21417V10.1499L16.7953 10.1505C15.9081 10.1505 15.7363 10.5775 15.7363 11.2041V12.5859H17.8522L17.5767 14.7503H15.7363V20.3038H13.5298Z" fill="white"/>
</svg>

<svg xmlns="http://www.w3.org/2000/svg" width="29" height="28" fill="none"><ellipse cx="14.808" cy="14" fill="#B1464A" rx="13.822" ry="14"/><path fill="#fff" d="M13.53 20.304V14.75h-1.845v-2.164h1.845V10.99c0-1.852 1.117-2.861 2.748-2.861.781 0 1.453.059 1.649.085v1.936h-1.132c-.887 0-1.059.428-1.059 1.054v1.382h2.116l-.275 2.164h-1.84v5.554H13.53Z"/></svg>
